;FLAVOR:UltiGCode
;TIME:7644
;MATERIAL:13573
;MATERIAL2:0
;NOZZLE_DIAMETER:0.4
;MINX:60.955
;MINY:82.026
;MINZ:0.324
;MAXX:162.765
;MAXY:140.973
;MAXZ:20.769
;Generated with Cura_SteamEngine 4.13.1
M82 ;absolute extrusion mode
G0 F3000 Y50 ;avoid prime blob
G92 E0
G92 E0
G10
;LAYER_COUNT:131
;LAYER:-7
M107
G0 F9000 X72.092 Y87.555 Z0.324
;TYPE:SUPPORT-INTERFACE
G11
G1 F1350 X72.232 Y87.441 E0.0468
G1 X72.941 Y86.902 E0.27765
G1 X73.071 Y86.81 E0.31893
G1 X73.829 Y86.318 E0.55316
G1 X73.979 Y86.228 E0.5985
G1 X74.754 Y85.801 E0.82785
G1 X74.919 Y85.718 E0.87573
G1 X75.713 Y85.354 E1.10213
G1 X75.895 Y85.28 E1.15305
G1 X77.187 Y84.82 E1.50853
G1 X77.302 Y84.782 E1.53992
G1 X79.248 Y84.202 E2.06625
G1 X79.726 Y84.037 E2.19733
G1 X79.918 Y83.974 E2.2497
G1 X80.74 Y83.738 E2.47137
G1 X80.929 Y83.692 E2.52179
G1 X81.812 Y83.507 E2.75563
G1 X81.965 Y83.482 E2.79582
G1 X82.841 Y83.364 E3.02493
G1 X83.036 Y83.345 E3.07571
G1 X83.932 Y83.292 E3.30836
G1 X84.085 Y83.287 E3.34804
G1 X84.866 Y83.291 E3.55048
G1 X85.035 Y83.294 E3.59429
G1 X86.489 Y83.295 E3.97117
G1 X87.948 Y83.348 E4.34959
G1 X88.112 Y83.36 E4.39221
G1 X88.96 Y83.354 E4.61202
G1 X89.289 Y83.33 E4.69752
G1 X89.987 Y83.311 E4.87851
G1 X90.553 Y83.297 E5.02526
G1 X90.72 Y83.294 E5.06855
G1 X91.742 Y83.287 E5.33346
G1 X92.573 Y83.286 E5.54886
G1 X93.545 Y83.319 E5.80095
G1 X93.696 Y83.33 E5.84019
G1 X94.601 Y83.427 E6.07611
G1 X94.773 Y83.452 E6.12116
G1 X95.642 Y83.611 E6.35014
G1 X95.816 Y83.649 E6.39631
G1 X96.686 Y83.874 E6.62923
G1 X96.934 Y83.948 E6.69631
G1 X97.591 Y84.099 E6.87105
G1 X98.447 Y84.169 E7.09366
G1 X106.802 Y84.168 E9.25928
G1 X107.47 Y84.126 E9.43277
G1 X108.144 Y83.996 E9.61069
G1 X108.951 Y83.716 E9.83209
G1 X109.709 Y83.382 E10.0468
G1 X109.844 Y83.328 E10.08448
G1 X110.698 Y83.025 E10.31936
G1 X110.85 Y82.976 E10.36075
G1 X111.729 Y82.734 E10.59707
G1 X111.878 Y82.698 E10.6368
G1 X112.775 Y82.521 E10.87379
G1 X112.924 Y82.497 E10.9129
G1 X113.79 Y82.39 E11.13908
G1 X114.012 Y82.372 E11.19681
G1 X115.098 Y82.325 E11.47857
G1 X115.248 Y82.321 E11.51746
G1 X118.372 Y82.321 E12.3272
G1 X119.129 Y82.276 E12.52376
G1 X119.276 Y82.268 E12.56192
G1 X119.93 Y82.252 E12.73149
G1 X122.602 Y82.253 E13.42407
G1 X123.603 Y82.289 E13.6837
G1 X123.726 Y82.298 E13.71566
G1 X124.643 Y82.4 E13.95482
G1 X124.818 Y82.425 E14.00064
G1 X125.707 Y82.589 E14.23495
G1 X125.83 Y82.617 E14.26765
G1 X126.724 Y82.851 E14.50718
G1 X126.887 Y82.9 E14.5513
G1 X127.734 Y83.187 E14.7831
G1 X127.857 Y83.235 E14.81732
G1 X128.498 Y83.434 E14.99129
G1 X129.17 Y83.552 E15.16814
G1 X129.85 Y83.585 E15.34461
G1 X130.409 Y83.547 E15.48983
G1 X131.063 Y83.475 E15.66037
G1 X132.142 Y83.429 E15.9403
G1 X132.304 Y83.425 E15.98231
G1 X147.839 Y83.426 E20.00898
G1 X148.84 Y83.462 E20.26861
G1 X148.963 Y83.471 E20.30057
G1 X149.88 Y83.573 E20.53973
G1 X150.055 Y83.598 E20.58555
G1 X150.944 Y83.762 E20.81986
G1 X151.067 Y83.79 E20.85256
G1 X151.961 Y84.024 E21.09209
G1 X152.124 Y84.073 E21.13621
G1 X152.966 Y84.359 E21.3667
G1 X153.132 Y84.423 E21.41282
G1 X153.935 Y84.764 E21.63894
G1 X154.124 Y84.852 E21.69298
G1 X154.918 Y85.26 E21.92437
G1 X155.035 Y85.327 E21.95931
G1 X155.814 Y85.801 E22.19567
G1 X155.965 Y85.901 E22.24262
G1 X156.679 Y86.412 E22.4702
G1 X156.827 Y86.525 E22.51846
G1 X157.519 Y87.102 E22.752
G1 X157.627 Y87.198 E22.78946
G1 X158.139 Y87.68 E22.97172
G1 X158.281 Y87.823 E23.02396
G1 X158.927 Y88.519 E23.27009
G1 X159.046 Y88.658 E23.31752
G1 X159.6 Y89.349 E23.54708
G1 X159.704 Y89.488 E23.59208
G1 X160.196 Y90.203 E23.81705
G1 X160.313 Y90.387 E23.87357
G1 X160.756 Y91.143 E24.10069
G1 X160.833 Y91.285 E24.14255
G1 X161.236 Y92.104 E24.37915
G1 X161.292 Y92.23 E24.41489
G1 X161.634 Y93.075 E24.65117
G1 X161.693 Y93.24 E24.69659
G1 X161.965 Y94.087 E24.92718
G1 X162.011 Y94.249 E24.97083
G1 X162.223 Y95.123 E25.20394
G1 X162.256 Y95.281 E25.24577
G1 X162.404 Y96.173 E25.48014
G1 X162.428 Y96.359 E25.52875
G1 X162.509 Y97.244 E25.7591
G1 X162.518 Y97.395 E25.79831
G1 X162.539 Y98.127 E25.98812
G1 X162.54 Y124.857 E32.91654
G1 X162.504 Y125.863 E33.17746
G1 X162.494 Y125.998 E33.21255
G1 X162.39 Y126.94 E33.4582
G1 X162.372 Y127.066 E33.49119
G1 X162.208 Y127.951 E33.72449
G1 X162.164 Y128.15 E33.77731
G1 X161.947 Y128.981 E33.99993
G1 X161.896 Y129.149 E34.04544
G1 X161.605 Y130.001 E34.2788
G1 X161.541 Y130.171 E34.32589
G1 X161.196 Y130.982 E34.55433
G1 X161.123 Y131.138 E34.59897
G1 X160.712 Y131.939 E34.83233
G1 X160.64 Y132.068 E34.87062
G1 X160.164 Y132.849 E35.10769
G1 X160.064 Y133 E35.15463
G1 X159.56 Y133.706 E35.37947
G1 X159.441 Y133.859 E35.42971
G1 X158.861 Y134.557 E35.66495
G1 X158.771 Y134.659 E35.7002
G1 X158.285 Y135.175 E35.88393
G1 X158.142 Y135.317 E35.93617
G1 X157.446 Y135.963 E36.18231
G1 X157.306 Y136.082 E36.22993
G1 X156.633 Y136.623 E36.45375
G1 X156.465 Y136.748 E36.50802
G1 X155.762 Y137.232 E36.72925
G1 X155.578 Y137.349 E36.78577
G1 X154.822 Y137.792 E37.01289
G1 X154.68 Y137.869 E37.05476
G1 X153.854 Y138.275 E37.29332
G1 X153.735 Y138.328 E37.32709
G1 X152.88 Y138.673 E37.56607
G1 X152.717 Y138.731 E37.61091
G1 X151.874 Y139.002 E37.84043
G1 X151.71 Y139.048 E37.88458
G1 X150.838 Y139.26 E38.11719
G1 X150.676 Y139.293 E38.16004
G1 X149.783 Y139.441 E38.39466
G1 X149.606 Y139.464 E38.44093
G1 X148.712 Y139.547 E38.67365
G1 X148.57 Y139.554 E38.7105
G1 X147.829 Y139.575 E38.90264
G1 X132.209 Y139.574 E42.95135
G1 X131.208 Y139.538 E43.21097
G1 X131.085 Y139.529 E43.24294
G1 X130.168 Y139.427 E43.48209
G1 X129.987 Y139.401 E43.52949
G1 X129.031 Y139.224 E43.7815
G1 X128.366 Y139.145 E43.95508
G1 X127.683 Y139.149 E44.13211
G1 X127.006 Y139.241 E44.3092
G1 X126.351 Y139.416 E44.48493
G1 X125.799 Y139.633 E44.63867
G1 X125.659 Y139.688 E44.67766
G1 X124.799 Y139.992 E44.91409
G1 X124.661 Y140.035 E44.95155
G1 X123.786 Y140.273 E45.18659
G1 X123.615 Y140.313 E45.23211
G1 X122.74 Y140.484 E45.4632
G1 X122.569 Y140.511 E45.50808
G1 X121.687 Y140.617 E45.73834
G1 X121.516 Y140.631 E45.78281
G1 X120.327 Y140.679 E46.09125
G1 X117.176 Y140.679 E46.90799
G1 X116.419 Y140.724 E47.10455
G1 X116.272 Y140.732 E47.14271
G1 X115.618 Y140.748 E47.31227
G1 X112.939 Y140.747 E48.00667
G1 X111.938 Y140.711 E48.2663
G1 X111.815 Y140.702 E48.29826
G1 X110.898 Y140.6 E48.53742
G1 X110.723 Y140.575 E48.58324
G1 X109.834 Y140.411 E48.81755
G1 X109.711 Y140.383 E48.85025
G1 X108.817 Y140.149 E49.08978
G1 X108.654 Y140.1 E49.1339
G1 X107.812 Y139.814 E49.36439
G1 X107.641 Y139.748 E49.4119
G1 X106.831 Y139.404 E49.64
G1 X106.682 Y139.335 E49.68257
G1 X106.059 Y139.09 E49.85608
G1 X105.392 Y138.922 E50.03437
G1 X104.425 Y138.832 E50.2861
G1 X98.423 Y138.832 E51.84182
G1 X97.75 Y138.875 E52.01662
G1 X96.865 Y139.066 E52.25129
G1 X96.79 Y139.088 E52.27155
G1 X95.944 Y139.316 E52.49866
G1 X95.769 Y139.356 E52.54519
G1 X94.874 Y139.527 E52.78137
G1 X94.718 Y139.552 E52.82232
G1 X93.84 Y139.655 E53.05146
G1 X93.657 Y139.669 E53.09903
G1 X92.61 Y139.711 E53.37063
G1 X92.518 Y139.713 E53.39448
G1 X90.812 Y139.713 E53.83668
G1 X90.706 Y139.711 E53.86416
G1 X89.569 Y139.665 E54.15911
G1 X88.874 Y139.627 E54.33952
G1 X88.336 Y139.639 E54.479
G1 X87.677 Y139.659 E54.6499
G1 X87.225 Y139.684 E54.76723
G1 X86.463 Y139.705 E54.96482
G1 X86.104 Y139.713 E55.05789
G1 X84.341 Y139.712 E55.51486
G1 X83.34 Y139.676 E55.77449
G1 X83.217 Y139.667 E55.80646
G1 X82.3 Y139.565 E56.04561
G1 X82.125 Y139.54 E56.09143
G1 X81.236 Y139.376 E56.32575
G1 X81.113 Y139.348 E56.35845
G1 X80.219 Y139.114 E56.59798
G1 X80.056 Y139.065 E56.64209
G1 X78.785 Y138.633 E56.99005
G1 X78.259 Y138.499 E57.13074
G1 X78.151 Y138.47 E57.15973
G1 X77.176 Y138.185 E57.42302
G1 X76.865 Y138.082 E57.50794
G1 X75.937 Y137.738 E57.76447
G1 X75.809 Y137.686 E57.80028
G1 X74.968 Y137.302 E58.03992
G1 X74.828 Y137.232 E58.08049
G1 X74.042 Y136.801 E58.31284
G1 X73.881 Y136.705 E58.36142
G1 X73.146 Y136.23 E58.58826
G1 X72.999 Y136.128 E58.63463
G1 X72.295 Y135.596 E58.86335
G1 X72.159 Y135.485 E58.90886
G1 X71.473 Y134.883 E59.14542
G1 X71.354 Y134.771 E59.18778
G1 X70.733 Y134.141 E59.41707
G1 X70.282 Y133.621 E59.59549
G1 X69.859 Y133.17 E59.75576
G1 X69.725 Y133.022 E59.80751
G1 X69.168 Y132.36 E60.03176
G1 X68.769 Y131.908 E60.18803
G1 X68.693 Y131.817 E60.21876
G1 X68.115 Y131.145 E60.44851
G1 X67.996 Y130.995 E60.49814
G1 X67.477 Y130.292 E60.72464
G1 X67.286 Y130.023 E60.81015
G1 X66.967 Y129.598 E60.94789
G1 X66.57 Y129.007 E61.13243
G1 X66.25 Y128.56 E61.27492
G1 X66.141 Y128.394 E61.3264
G1 X65.686 Y127.647 E61.55311
G1 X65.291 Y126.945 E61.76189
G1 X65.183 Y126.764 E61.81653
G1 X64.764 Y125.993 E62.04397
G1 X64.433 Y125.304 E62.2421
G1 X64.153 Y124.783 E62.39541
G1 X64.068 Y124.609 E62.44561
G1 X63.721 Y123.83 E62.66665
G1 X63.51 Y123.273 E62.82104
G1 X63.52 Y123.268 E62.82393
G1 X63.259 Y122.673 E62.99234
G1 X62.922 Y121.82 E63.23007
G1 X62.876 Y121.694 E63.26484
G1 X62.687 Y121.109 E63.42419
G1 X62.526 Y120.509 E63.58521
G1 X62.49 Y120.347 E63.62822
G1 X62.273 Y119.718 E63.80069
G1 X62.003 Y118.83 E64.04126
G1 X61.968 Y118.695 E64.07741
G1 X61.756 Y117.752 E64.32794
G1 X61.613 Y116.858 E64.56261
G1 X61.495 Y115.934 E64.80406
G1 X61.347 Y114.685 E65.13006
G1 X61.262 Y113.647 E65.40001
G1 X61.2 Y112.407 E65.72182
G1 X61.181 Y111.667 E65.91369
G1 X61.181 Y111.358 E65.99378
G1 X61.201 Y110.572 E66.19758
G1 X61.274 Y109.193 E66.55552
G1 X61.351 Y108.249 E66.80102
G1 X61.363 Y108.128 E66.83253
G1 X61.473 Y107.186 E67.07836
G1 X61.506 Y106.921 E67.14758
G1 X61.599 Y106.24 E67.32573
G1 X61.615 Y106.133 E67.35377
G1 X61.759 Y105.268 E67.58107
G1 X61.792 Y105.101 E67.62519
G1 X62.024 Y104.119 E67.88673
G1 X62.063 Y103.975 E67.9254
G1 X62.306 Y103.177 E68.14162
G1 X62.664 Y101.939 E68.47566
G1 X62.69 Y101.854 E68.4987
G1 X62.984 Y100.956 E68.74362
G1 X63.036 Y100.815 E68.78257
G1 X63.38 Y99.98 E69.01665
G1 X63.427 Y99.879 E69.04552
G1 X63.917 Y98.706 E69.37503
G1 X63.979 Y98.572 E69.4133
G1 X64.972 Y96.615 E69.98212
G1 X65.271 Y96.109 E70.13446
G1 X65.58 Y95.532 E70.30411
G1 X65.656 Y95.395 E70.34472
G1 X66.13 Y94.613 E70.58174
G1 X66.225 Y94.471 E70.62603
G1 X66.565 Y93.993 E70.77807
G1 X66.84 Y93.583 E70.90603
G1 X67.366 Y92.861 E71.13757
G1 X68.003 Y92.003 E71.41456
G1 X68.11 Y91.87 E71.4588
G1 X68.495 Y91.421 E71.61211
G1 X68.554 Y91.348 E71.63644
G1 X69.179 Y90.615 E71.88612
G1 X69.392 Y90.375 E71.9693
G1 X69.748 Y89.951 E72.1128
G1 X70.137 Y89.525 E72.26233
G1 X70.55 Y89.036 E72.42823
G1 X70.667 Y88.907 E72.47337
G1 X71.315 Y88.246 E72.7133
G1 X71.408 Y88.157 E72.74667
G1 X72.092 Y87.555 E72.98285
G1 X72 Y87.635
G1 X72 Y135.345 E85.34928
G0 F9000 X73.6 Y136.523
G1 F1350 X73.6 Y86.466 E98.32405
G0 F9000 X75.2 Y85.589
G1 F1350 X75.2 Y137.407 E111.75528
G0 F9000 X76.8 Y138.057
G1 F1350 X76.8 Y84.957 E125.5188
G0 F9000 X78.4 Y84.454
G1 F1350 X78.4 Y138.534 E139.53633
G0 F9000 X80 Y139.045
G1 F1350 X80 Y83.95 E153.81696
G0 F9000 X81.6 Y83.551
G1 F1350 X81.6 Y139.443 E168.30417
G0 F9000 X83.2 Y139.665
G1 F1350 X83.2 Y83.335 E182.9049
G0 F9000 X84.8 Y83.291
G1 F1350 X84.8 Y139.712 E197.52922
G0 F9000 X86.4 Y139.707
G1 F1350 X86.4 Y83.295 E212.15121
G0 F9000 X88 Y83.352
G1 F1350 X88 Y139.65 E226.74366
G0 F9000 X89.6 Y139.666
G1 F1350 X89.6 Y83.321 E241.34828
G0 F9000 X91.2 Y83.29
G1 F1350 X91.2 Y139.713 E255.97312
G0 F9000 X92.8 Y139.704
G1 F1350 X92.8 Y83.294 E270.59459
G0 F9000 X94.4 Y83.406
G1 F1350 X94.4 Y139.59 E285.15749
G0 F9000 X96 Y139.301
G1 F1350 X96 Y83.697 E299.57004
G0 F9000 X97.6 Y84.1
G1 F1350 X97.6 Y138.908 E313.77628
G0 F9000 X99.2 Y138.832
G1 F1350 X99.2 Y84.168 E327.94519
G0 F9000 X100.8 Y84.168
G1 F1350 X100.8 Y138.832 E342.11409
G0 F9000 X102.4 Y138.832
G1 F1350 X102.4 Y84.168 E356.283
G0 F9000 X104 Y84.168
G1 F1350 X104 Y138.832 E370.45191
G0 F9000 X105.6 Y138.974
G1 F1350 X105.6 Y84.168 E384.65763
G0 F9000 X107.2 Y84.142
G1 F1350 X107.2 Y139.56 E399.02197
G0 F9000 X108.8 Y140.143
G1 F1350 X108.8 Y83.768 E413.63437
G0 F9000 X110.4 Y83.13
G1 F1350 X110.4 Y140.515 E428.50857
G0 F9000 X112 Y140.713
G1 F1350 X112 Y82.673 E443.55253
G0 F9000 X113.6 Y82.413
G1 F1350 X113.6 Y140.747 E458.67271
G0 F9000 X115.2 Y140.747
G1 F1350 X115.2 Y82.322 E473.81647
G0 F9000 X116.8 Y82.321
G1 F1350 X116.8 Y140.702 E488.94882
G0 F9000 X118.4 Y140.679
G1 F1350 X118.4 Y82.319 E504.07573
G0 F9000 X120 Y82.253
G1 F1350 X120 Y140.679 E519.21975
G0 F9000 X121.6 Y140.625
G1 F1350 X121.6 Y82.253 E534.34977
G0 F9000 X123.2 Y82.275
G1 F1350 X123.2 Y140.395 E549.41448
G0 F9000 X124.8 Y139.992
G1 F1350 X124.8 Y82.423 E564.33636
G0 F9000 X126.4 Y82.767
G1 F1350 X126.4 Y139.403 E579.01641
G0 F9000 X128 Y139.148
G1 F1350 X128 Y83.28 E593.4974
G0 F9000 X129.6 Y83.573
G1 F1350 X129.6 Y139.329 E607.94936
G0 F9000 X131.2 Y139.537
G1 F1350 X131.2 Y83.469 E622.48218
G0 F9000 X132.8 Y83.426
G1 F1350 X132.8 Y139.574 E637.03574
G0 F9000 X134.4 Y139.574
G1 F1350 X134.4 Y83.426 E651.5893
G0 F9000 X136 Y83.426
G1 F1350 X136 Y139.574 E666.14287
G0 F9000 X137.6 Y139.574
G1 F1350 X137.6 Y83.426 E680.69643
G0 F9000 X139.2 Y83.426
G1 F1350 X139.2 Y139.574 E695.24999
G0 F9000 X140.8 Y139.574
G1 F1350 X140.8 Y83.426 E709.80355
G0 F9000 X142.4 Y83.426
G1 F1350 X142.4 Y139.574 E724.35711
G0 F9000 X144 Y139.574
G1 F1350 X144 Y83.426 E738.91067
G0 F9000 X145.6 Y83.426
G1 F1350 X145.6 Y139.574 E753.46424
G0 F9000 X147.2 Y139.574
G1 F1350 X147.2 Y83.426 E768.0178
G0 F9000 X148.8 Y83.461
G1 F1350 X148.8 Y139.539 E782.55321
G0 F9000 X150.4 Y139.339
G1 F1350 X150.4 Y83.662 E796.98469
G0 F9000 X152 Y84.036
G1 F1350 X152 Y138.962 E811.22151
G0 F9000 X153.6 Y138.383
G1 F1350 X153.6 Y84.622 E825.15636
G0 F9000 X155.2 Y85.428
G1 F1350 X155.2 Y137.571 E838.67183
G0 F9000 X156.8 Y136.489
G1 F1350 X156.8 Y86.505 E851.62768
G0 F9000 X158.4 Y87.952
G1 F1350 X158.4 Y135.053 E863.83626
G0 F9000 X160 Y133.09
G1 F1350 X160 Y89.919 E875.02618
G0 F9000 X161.6 Y92.991
G1 F1350 X161.6 Y130.015 E884.62281
G0 F9000 X70.4 Y133.757
G1 F1350 X70.4 Y89.213 E896.16861
G0 F9000 X68.8 Y91.059
G1 F1350 X68.8 Y131.943 E906.76574
G0 F9000 X67.2 Y129.908
G1 F1350 X67.2 Y93.088 E916.30949
G0 F9000 X65.6 Y95.495
G1 F1350 X65.6 Y127.494 E924.60363
G0 F9000 X64 Y124.456
G1 F1350 X64 Y98.53 E931.32365
G0 F9000 X62.4 Y102.851
G1 F1350 X62.4 Y120.086 E935.79096
G0 F600 X62.4 Y120.086 Z0.549
G0 F9000 X66.187 Y128.554
;TIME_ELAPSED:167.221376
;LAYER:-6
;TYPE:SUPPORT
G1 F1350 X75.007 Y137.373 E937.7554
G1 X75.78 Y137.727 E937.88931
G1 X75.922 Y137.785 E937.91347
G1 X76.854 Y138.131 E938.07005
G1 X77.126 Y138.22 E938.11512
G1 X64.538 Y125.632 E940.91896
G1 X64.389 Y125.324 E940.97284
G1 X64.101 Y124.792 E941.06812
G1 X64.029 Y124.641 E941.09447
G1 X63.67 Y123.836 E941.2333
G1 X63.595 Y123.646 E941.26547
G1 X63.505 Y123.393 E941.30776
G1 X63.459 Y123.28 E941.32698
G1 X78.903 Y138.724 E944.76695
G1 X80.028 Y139.108 E944.95418
G1 X80.202 Y139.16 E944.98278
G1 X80.757 Y139.305 E945.07313
G1 X62.67 Y121.218 E949.1018
G1 X62.639 Y121.122 E949.11769
G1 X62.596 Y120.985 E949.1403
G1 X62.55 Y120.82 E949.16728
G1 X62.477 Y120.522 E949.21561
G1 X62.413 Y120.318 E949.24928
G1 X62.426 Y120.314 E949.25142
G1 X62.221 Y119.718 E949.35069
G1 X62.124 Y119.399 E949.4032
G1 X82.343 Y139.619 E953.90687
G1 X83.21 Y139.715 E954.04425
G1 X83.336 Y139.725 E954.06416
G1 X83.736 Y139.739 E954.1272
G1 X61.695 Y117.697 E959.03669
G1 X61.563 Y116.863 E959.16968
G1 X61.479 Y116.209 E959.27354
G1 X85.031 Y139.761 E964.51948
G1 X86.105 Y139.761 E964.68863
G1 X86.3 Y139.757 E964.71935
G1 X61.305 Y114.762 E970.2867
G1 X61.296 Y114.689 E970.29829
G1 X61.212 Y113.656 E970.46152
G1 X61.198 Y113.383 E970.50458
G1 X87.535 Y139.72 E976.37084
G1 X87.727 Y139.715 E976.40109
G1 X87.727 Y139.706 E976.40251
G1 X88.338 Y139.688 E976.49878
G1 X88.398 Y139.683 E976.50827
G1 X88.765 Y139.677 E976.56608
G1 X61.14 Y112.052 E982.71923
G1 X61.13 Y111.666 E982.78005
G1 X61.13 Y111.356 E982.82887
G1 X61.145 Y110.784 E982.91899
G1 X90.097 Y139.736 E989.36772
G1 X90.704 Y139.76 E989.4634
G1 X90.81 Y139.762 E989.4801
G1 X91.396 Y139.762 E989.57239
G1 X61.202 Y109.569 E996.29765
G1 X61.223 Y109.182 E996.35869
